svgs/light/hat-santa.svg

<svg xmlns="http://www.w3.org/2000/svg" viewBox="0 0 640 512"><!--! Font Awesome Pro 6.0.0-alpha3 by @fontawesome - https://fontawesome.com License - https://fontawesome.com/license (Commercial License) --><path d="M640 239.4c0-11.21-5.875-21.32-15.16-27.08c2.594-10.67-.3438-21.98-8.281-30.04c-7.906-7.872-19.03-10.8-29.69-8.155c-11.44-18.83-42.31-18.8-53.75-.0315c-10.5-2.676-21.78 .3149-29.78 8.281c-7.875 7.967-10.78 19.27-8.156 29.98C485.8 218.1 480 228.2 480 239.4s5.875 21.32 15.16 27.08c-2.594 10.67 .2656 22.03 8.266 30.16c8.531 8.407 19.08 11.23 29.8 8.268C538.1 314.2 548.9 320 560 320c11.12 0 21.08-5.815 26.8-15.14c8.656 2.456 19.3 1.659 30.02-8.607c7.781-7.904 10.62-19.11 8-29.82C634.2 260.7 640 250.6 640 239.4zM592.5 253.2c-2.75 6.801-2.312 14.36 1.75 20.12c-6.5-3.621-14.34-3.936-20.78-1.102c-6.531 2.802-11.5 8.281-13.22 15.18c-2.156-6.927-7.188-12.5-13.72-15.18l-6-1.858h-3.219c-4.062 0-8.031 1.039-10.97 3.653c3.531-6.455 3.969-14.01 1.25-20.72c-2.719-6.77-8.219-11.9-15.69-13.38c0 0 .0938-.126 .4375-.2204c6.938-2.173 12.53-7.337 15.22-14.01c2.75-6.801 2.312-14.36-1.75-20.12c6.562 3.59 14.19 3.936 20.47 1.197c6.719-2.739 11.81-8.281 13.53-15.27c2.156 6.99 7.25 12.53 13.62 15.11c6.719 2.897 14.5 2.456 20.28-1.732c-3.531 6.455-3.969 14.01-1.25 20.72c2.719 6.77 8.219 11.9 15.16 13.63C600.7 241.3 595.2 246.5 592.5 253.2zM464 352h-5.004l-76.06-197.8c-3.156-8.219-12.38-12.34-20.69-9.188c-8.25 3.188-12.34 12.44-9.188 20.69L424.7 352H87.62l75.35-188.3C187.2 103.1 244.1 64 310.2 64c51.06 0 99.31 24.81 129 66.41l27.78 38.91c5.156 7.156 15.09 8.812 22.34 3.719c7.188-5.156 8.844-15.12 3.719-22.34l-27.78-38.91C429.5 61.84 371.6 32 310.2 32C231.8 32 162.4 79 133.3 151.8L53.18 352H48C21.49 352 0 373.5 0 400v32C0 458.5 21.49 480 48 480h416c26.51 0 48-21.49 48-48v-32C512 373.5 490.5 352 464 352zM480 432c0 8.836-7.164 16-16 16h-416C39.16 448 32 440.8 32 432v-32C32 391.2 39.16 384 48 384h416c8.836 0 16 7.164 16 16V432z"/></svg>

<svg xmlns="http://www.w3.org/2000/svg" viewBox="0 0 640 512"><!-- Font Awesome Pro 6.0.0-alpha2 by @fontawesome - https://fontawesome.com License - https://fontawesome.com/license (Commercial License) --><path d="M640 239.39C640 228.18 634.125 218.072 624.844 212.31C627.438 201.635 624.5 190.331 616.562 182.27C608.656 174.398 597.531 171.47 586.875 174.115C575.437 155.285 544.562 155.316 533.125 174.083C522.625 171.407 511.344 174.398 503.344 182.365C495.469 190.331 492.562 201.635 495.187 212.341C485.844 218.104 480 228.18 480 239.39S485.875 260.707 495.156 266.47C492.562 277.144 495.5 288.449 503.5 296.573C512.031 304.98 522.5 307.783 533.219 304.823C538.969 314.143 548.938 320 560 320C571.125 320 581.094 314.112 586.812 304.791C595.469 307.247 606.094 306.523 616.812 296.258C624.594 288.354 627.437 277.144 624.812 266.438C634.156 260.676 640 250.6 640 239.39ZM592.469 253.15C589.719 259.952 590.156 267.509 594.219 273.271C587.719 269.65 579.875 269.335 573.437 272.169C566.906 274.972 561.937 280.451 560.219 287.347C558.062 280.419 553.031 274.846 546.5 272.169L540.5 270.311H537.281C533.219 270.311 529.25 271.351 526.313 273.964C529.844 267.509 530.281 259.952 527.563 253.245C524.844 246.475 519.344 241.342 511.875 239.862C511.875 239.862 511.969 239.736 512.313 239.642L512.406 239.61C519.344 237.438 524.844 232.305 527.531 225.63C530.281 218.828 529.844 211.271 525.781 205.508C532.344 209.098 539.969 209.445 546.25 206.705C552.969 203.966 558.062 198.424 559.781 191.433C561.938 198.424 567.031 203.966 573.406 206.548C580.125 209.445 587.906 209.004 593.688 204.816C590.156 211.271 589.719 218.828 592.438 225.535C595.156 232.305 600.656 237.438 607.594 239.169C600.656 241.342 595.156 246.475 592.469 253.15ZM464 352H458.996L382.937 154.25C379.781 146.031 370.562 141.906 362.25 145.062C354 148.25 349.906 157.5 353.062 165.75L424.697 352H87.619L162.969 163.656C187.188 103.125 244.969 64 310.188 64C361.25 64 409.5 88.812 439.188 130.406L466.969 169.312C472.125 176.469 482.063 178.125 489.313 173.031C496.5 167.875 498.156 157.906 493.031 150.687L465.25 111.781C429.531 61.844 371.562 32 310.188 32C231.812 32 162.375 79 133.281 151.781L53.182 352H48C21.49 352 0 373.49 0 400V432C0 458.51 21.49 480 48 480H464C490.51 480 512 458.51 512 432V400C512 373.49 490.51 352 464 352ZM480 432C480 440.836 472.836 448 464 448H48C39.164 448 32 440.836 32 432V400C32 391.164 39.164 384 48 384H464C472.836 384 480 391.164 480 400V432Z"/></svg>
